static/assets/icons/calendar.svg

<svg height="24" viewBox="0 0 24 24" width="24" xmlns="http://www.w3.org/2000/svg"><path d="m16.5 2c.2761424 0 .5.22385763.5.5v.5h4c.5522847 0 1 .44771525 1 1v16c0 .5522847-.4477153 1-1 1h-18c-.55228475 0-1-.4477153-1-1v-16c0-.55228475.44771525-1 1-1h4v-.5c0-.27614237.22385763-.5.5-.5s.5.22385763.5.5v.5h8v-.5c0-.27614237.2238576-.5.5-.5zm4.5 5h-18v13h18zm-5.5 10c.2761424 0 .5.2238576.5.5s-.2238576.5-.5.5h-1c-.2761424 0-.5-.2238576-.5-.5s.2238576-.5.5-.5zm-3 0c.2761424 0 .5.2238576.5.5s-.2238576.5-.5.5h-1c-.2761424 0-.5-.2238576-.5-.5s.2238576-.5.5-.5zm-3 0c.27614237 0 .5.2238576.5.5s-.22385763.5-.5.5h-1c-.27614237 0-.5-.2238576-.5-.5s.22385763-.5.5-.5zm-3 0c.27614237 0 .5.2238576.5.5s-.22385763.5-.5.5h-1c-.27614237 0-.5-.2238576-.5-.5s.22385763-.5.5-.5zm6-2c.2761424 0 .5.2238576.5.5s-.2238576.5-.5.5h-1c-.2761424 0-.5-.2238576-.5-.5s.2238576-.5.5-.5zm-3 0c.27614237 0 .5.2238576.5.5s-.22385763.5-.5.5h-1c-.27614237 0-.5-.2238576-.5-.5s.22385763-.5.5-.5zm-3 0c.27614237 0 .5.2238576.5.5s-.22385763.5-.5.5h-1c-.27614237 0-.5-.2238576-.5-.5s.22385763-.5.5-.5zm9 0c.2761424 0 .5.2238576.5.5s-.2238576.5-.5.5h-1c-.2761424 0-.5-.2238576-.5-.5s.2238576-.5.5-.5zm3 0c.2761424 0 .5.2238576.5.5s-.2238576.5-.5.5h-1c-.2761424 0-.5-.2238576-.5-.5s.2238576-.5.5-.5zm-12-2c.27614237 0 .5.2238576.5.5s-.22385763.5-.5.5h-1c-.27614237 0-.5-.2238576-.5-.5s.22385763-.5.5-.5zm3 0c.27614237 0 .5.2238576.5.5s-.22385763.5-.5.5h-1c-.27614237 0-.5-.2238576-.5-.5s.22385763-.5.5-.5zm3 0c.2761424 0 .5.2238576.5.5s-.2238576.5-.5.5h-1c-.2761424 0-.5-.2238576-.5-.5s.2238576-.5.5-.5zm3 0c.2761424 0 .5.2238576.5.5s-.2238576.5-.5.5h-1c-.2761424 0-.5-.2238576-.5-.5s.2238576-.5.5-.5zm3 0c.2761424 0 .5.2238576.5.5s-.2238576.5-.5.5h-1c-.2761424 0-.5-.2238576-.5-.5s.2238576-.5.5-.5zm-6-2c.2761424 0 .5.2238576.5.5s-.2238576.5-.5.5h-1c-.2761424 0-.5-.2238576-.5-.5s.2238576-.5.5-.5zm3 0c.2761424 0 .5.2238576.5.5s-.2238576.5-.5.5h-1c-.2761424 0-.5-.2238576-.5-.5s.2238576-.5.5-.5zm3 0c.2761424 0 .5.2238576.5.5s-.2238576.5-.5.5h-1c-.2761424 0-.5-.2238576-.5-.5s.2238576-.5.5-.5zm-9 0c.27614237 0 .5.2238576.5.5s-.22385763.5-.5.5h-1c-.27614237 0-.5-.2238576-.5-.5s.22385763-.5.5-.5zm-3 0c.27614237 0 .5.2238576.5.5s-.22385763.5-.5.5h-1c-.27614237 0-.5-.2238576-.5-.5s.22385763-.5.5-.5zm12-2c.2761424 0 .5.22385763.5.5s-.2238576.5-.5.5h-1c-.2761424 0-.5-.22385763-.5-.5s.2238576-.5.5-.5zm-3 0c.2761424 0 .5.22385763.5.5s-.2238576.5-.5.5h-1c-.2761424 0-.5-.22385763-.5-.5s.2238576-.5.5-.5zm-3 0c.2761424 0 .5.22385763.5.5s-.2238576.5-.5.5h-1c-.2761424 0-.5-.22385763-.5-.5s.2238576-.5.5-.5zm-5.5-5h-4v2h18v-2h-4v.5c0 .27614237-.2238576.5-.5.5s-.5-.22385763-.5-.5v-.5h-8v.5c0 .27614237-.22385763.5-.5.5s-.5-.22385763-.5-.5z" fill="#414b5d"/></svg>

<?xml version="1.0" encoding="UTF-8"?>
<svg width="24px" height="24px" viewBox="0 0 24 24" version="1.1" xmlns="http://www.w3.org/2000/svg" xmlns:xlink="http://www.w3.org/1999/xlink">
    <!-- Generator: Sketch 59.1 (86144) - https://sketch.com -->
    <title>Icons/Calendar</title>
    <desc>Created with Sketch.</desc>
    <g id="Icons/Calendar" stroke="none" stroke-width="1" fill="none" fill-rule="evenodd">
        <path d="M16.5,2 C16.7761424,2 17,2.22385763 17,2.5 L17,3 L21,3 C21.5522847,3 22,3.44771525 22,4 L22,20 C22,20.5522847 21.5522847,21 21,21 L3,21 C2.44771525,21 2,20.5522847 2,20 L2,4 C2,3.44771525 2.44771525,3 3,3 L7,3 L7,2.5 C7,2.22385763 7.22385763,2 7.5,2 C7.77614237,2 8,2.22385763 8,2.5 L8,3 L16,3 L16,2.5 C16,2.22385763 16.2238576,2 16.5,2 Z M21,7 L3,7 L3,20 L21,20 L21,7 Z M15.5,17 C15.7761424,17 16,17.2238576 16,17.5 C16,17.7761424 15.7761424,18 15.5,18 L14.5,18 C14.2238576,18 14,17.7761424 14,17.5 C14,17.2238576 14.2238576,17 14.5,17 L15.5,17 Z M12.5,17 C12.7761424,17 13,17.2238576 13,17.5 C13,17.7761424 12.7761424,18 12.5,18 L11.5,18 C11.2238576,18 11,17.7761424 11,17.5 C11,17.2238576 11.2238576,17 11.5,17 L12.5,17 Z M9.5,17 C9.77614237,17 10,17.2238576 10,17.5 C10,17.7761424 9.77614237,18 9.5,18 L8.5,18 C8.22385763,18 8,17.7761424 8,17.5 C8,17.2238576 8.22385763,17 8.5,17 L9.5,17 Z M6.5,17 C6.77614237,17 7,17.2238576 7,17.5 C7,17.7761424 6.77614237,18 6.5,18 L5.5,18 C5.22385763,18 5,17.7761424 5,17.5 C5,17.2238576 5.22385763,17 5.5,17 L6.5,17 Z M12.5,15 C12.7761424,15 13,15.2238576 13,15.5 C13,15.7761424 12.7761424,16 12.5,16 L11.5,16 C11.2238576,16 11,15.7761424 11,15.5 C11,15.2238576 11.2238576,15 11.5,15 L12.5,15 Z M9.5,15 C9.77614237,15 10,15.2238576 10,15.5 C10,15.7761424 9.77614237,16 9.5,16 L8.5,16 C8.22385763,16 8,15.7761424 8,15.5 C8,15.2238576 8.22385763,15 8.5,15 L9.5,15 Z M6.5,15 C6.77614237,15 7,15.2238576 7,15.5 C7,15.7761424 6.77614237,16 6.5,16 L5.5,16 C5.22385763,16 5,15.7761424 5,15.5 C5,15.2238576 5.22385763,15 5.5,15 L6.5,15 Z M15.5,15 C15.7761424,15 16,15.2238576 16,15.5 C16,15.7761424 15.7761424,16 15.5,16 L14.5,16 C14.2238576,16 14,15.7761424 14,15.5 C14,15.2238576 14.2238576,15 14.5,15 L15.5,15 Z M18.5,15 C18.7761424,15 19,15.2238576 19,15.5 C19,15.7761424 18.7761424,16 18.5,16 L17.5,16 C17.2238576,16 17,15.7761424 17,15.5 C17,15.2238576 17.2238576,15 17.5,15 L18.5,15 Z M6.5,13 C6.77614237,13 7,13.2238576 7,13.5 C7,13.7761424 6.77614237,14 6.5,14 L5.5,14 C5.22385763,14 5,13.7761424 5,13.5 C5,13.2238576 5.22385763,13 5.5,13 L6.5,13 Z M9.5,13 C9.77614237,13 10,13.2238576 10,13.5 C10,13.7761424 9.77614237,14 9.5,14 L8.5,14 C8.22385763,14 8,13.7761424 8,13.5 C8,13.2238576 8.22385763,13 8.5,13 L9.5,13 Z M12.5,13 C12.7761424,13 13,13.2238576 13,13.5 C13,13.7761424 12.7761424,14 12.5,14 L11.5,14 C11.2238576,14 11,13.7761424 11,13.5 C11,13.2238576 11.2238576,13 11.5,13 L12.5,13 Z M15.5,13 C15.7761424,13 16,13.2238576 16,13.5 C16,13.7761424 15.7761424,14 15.5,14 L14.5,14 C14.2238576,14 14,13.7761424 14,13.5 C14,13.2238576 14.2238576,13 14.5,13 L15.5,13 Z M18.5,13 C18.7761424,13 19,13.2238576 19,13.5 C19,13.7761424 18.7761424,14 18.5,14 L17.5,14 C17.2238576,14 17,13.7761424 17,13.5 C17,13.2238576 17.2238576,13 17.5,13 L18.5,13 Z M12.5,11 C12.7761424,11 13,11.2238576 13,11.5 C13,11.7761424 12.7761424,12 12.5,12 L11.5,12 C11.2238576,12 11,11.7761424 11,11.5 C11,11.2238576 11.2238576,11 11.5,11 L12.5,11 Z M15.5,11 C15.7761424,11 16,11.2238576 16,11.5 C16,11.7761424 15.7761424,12 15.5,12 L14.5,12 C14.2238576,12 14,11.7761424 14,11.5 C14,11.2238576 14.2238576,11 14.5,11 L15.5,11 Z M18.5,11 C18.7761424,11 19,11.2238576 19,11.5 C19,11.7761424 18.7761424,12 18.5,12 L17.5,12 C17.2238576,12 17,11.7761424 17,11.5 C17,11.2238576 17.2238576,11 17.5,11 L18.5,11 Z M9.5,11 C9.77614237,11 10,11.2238576 10,11.5 C10,11.7761424 9.77614237,12 9.5,12 L8.5,12 C8.22385763,12 8,11.7761424 8,11.5 C8,11.2238576 8.22385763,11 8.5,11 L9.5,11 Z M6.5,11 C6.77614237,11 7,11.2238576 7,11.5 C7,11.7761424 6.77614237,12 6.5,12 L5.5,12 C5.22385763,12 5,11.7761424 5,11.5 C5,11.2238576 5.22385763,11 5.5,11 L6.5,11 Z M18.5,9 C18.7761424,9 19,9.22385763 19,9.5 C19,9.77614237 18.7761424,10 18.5,10 L17.5,10 C17.2238576,10 17,9.77614237 17,9.5 C17,9.22385763 17.2238576,9 17.5,9 L18.5,9 Z M15.5,9 C15.7761424,9 16,9.22385763 16,9.5 C16,9.77614237 15.7761424,10 15.5,10 L14.5,10 C14.2238576,10 14,9.77614237 14,9.5 C14,9.22385763 14.2238576,9 14.5,9 L15.5,9 Z M12.5,9 C12.7761424,9 13,9.22385763 13,9.5 C13,9.77614237 12.7761424,10 12.5,10 L11.5,10 C11.2238576,10 11,9.77614237 11,9.5 C11,9.22385763 11.2238576,9 11.5,9 L12.5,9 Z M7,4 L3,4 L3,6 L21,6 L21,4 L17,4 L17,4.5 C17,4.77614237 16.7761424,5 16.5,5 C16.2238576,5 16,4.77614237 16,4.5 L16,4 L8,4 L8,4.5 C8,4.77614237 7.77614237,5 7.5,5 C7.22385763,5 7,4.77614237 7,4.5 L7,4 Z" id="optimized" fill="#414B5D" fill-rule="nonzero"></path>
    </g>
</svg>
